src/assets/images/icons/callIcon.svg

<svg width="15" height="16" viewBox="0 0 15 16" fill="none" xmlns="http://www.w3.org/2000/svg">
<path fill-rule="evenodd" clip-rule="evenodd" d="M7.09084 3.71948C6.5252 1.67578 4.48882 0.413481 2.47366 1.08563C1.16075 1.52353 0.36153 2.34048 0.096587 3.43014C-0.149676 4.44297 0.107001 5.53596 0.505639 6.50187C1.30841 8.44701 2.89725 10.3741 3.79683 11.2744C4.67567 12.1539 6.59999 13.7496 8.54879 14.5597C9.51638 14.9619 10.6135 15.2231 11.6309 14.9774C12.726 14.713 13.547 13.9097 13.9874 12.5875C14.6585 10.5725 13.3985 8.53453 11.3552 7.96816L11.3552 7.96816C9.95859 7.58104 8.49392 7.95017 7.49436 8.8473C7.25974 8.66561 7.03409 8.46716 6.81889 8.2518C6.60264 8.03539 6.40344 7.80838 6.22114 7.57228C7.11124 6.57237 7.47627 5.11211 7.09084 3.71949L7.09084 3.71948Z" fill="#5D6B8A"/>
</svg>

<svg xmlns="http://www.w3.org/2000/svg" width="15" height="16" fill="none"><path fill="#5D6B8A" fill-rule="evenodd" d="M7.09 3.72C6.526 1.675 4.49.412 2.475 1.085 1.16 1.524.362 2.34.097 3.43c-.247 1.013.01 2.106.409 3.072.802 1.945 2.391 3.872 3.29 4.772.88.88 2.804 2.476 4.753 3.286.967.402 2.065.663 3.082.417 1.095-.264 1.916-1.067 2.356-2.39.671-2.014-.588-4.052-2.632-4.619-1.396-.387-2.861-.018-3.86.88A7.101 7.101 0 0 1 6.22 7.571c.89-1 1.255-2.46.87-3.853Z" clip-rule="evenodd"/></svg>
